frontend/public/Images/Brand/BusinessLink.svg

<svg width="94" height="54" viewBox="0 0 94 54" fill="none" xmlns="http://www.w3.org/2000/svg">
<path fill-rule="evenodd" clip-rule="evenodd" d="M67.2542 0C59.1586 0 51.908 3.63678 47 9.37798C42.0971 3.63678 34.8414 0 26.7458 0C11.9764 0 0 12.0902 0 27C0 41.9098 11.9764 54 26.7458 54C34.8414 54 42.092 50.3632 47 44.622C51.9029 50.3632 59.1535 54 67.2542 54C82.0236 54 94 41.9098 94 27C94 12.0902 82.0236 0 67.2542 0Z" fill="#E50012"/>
<path d="M27.0665 25.424C24.7145 24.816 23.6905 23.312 23.6585 21.824H26.5705V20.176H23.6585V18.592H21.5465V20.176H18.6665V21.824H21.5465C21.5145 23.488 20.4905 25.12 18.1385 25.792L19.1465 27.44C20.8425 26.944 22.0105 25.888 22.6505 24.56C23.3225 25.712 24.4585 26.624 26.1065 27.056L27.0665 25.424ZM25.0345 31.76C23.1305 31.76 22.1385 31.392 22.1385 30.592C22.1385 29.792 23.1305 29.424 25.0345 29.424C26.9225 29.424 27.9145 29.792 27.9145 30.592C27.9145 31.392 26.9225 31.76 25.0345 31.76ZM25.0345 27.792C21.9465 27.792 20.0425 28.832 20.0425 30.592C20.0425 32.352 21.9465 33.376 25.0345 33.376C28.1065 33.376 30.0105 32.352 30.0105 30.592C30.0105 28.832 28.1065 27.792 25.0345 27.792ZM29.8505 22.096V18.64H27.7385V27.52H29.8505V23.824H31.8025V22.096H29.8505ZM43.1933 31.52H37.6253V30.208H43.1933V31.52ZM43.1933 28.608H37.6253V27.2H35.5293V33.2H45.2893V27.2H43.1933V28.608ZM37.0333 24.528C35.9613 24.528 35.1773 23.872 35.1773 22.768C35.1773 21.664 35.9613 21.008 37.0333 21.008C38.1213 21.008 38.9053 21.664 38.9053 22.768C38.9053 23.872 38.1213 24.528 37.0333 24.528ZM43.1773 18.64V21.888H40.8253C40.4093 20.32 38.9053 19.248 37.0333 19.248C34.8253 19.248 33.1613 20.72 33.1613 22.768C33.1613 24.816 34.8253 26.288 37.0333 26.288C38.9373 26.288 40.4413 25.2 40.8413 23.6H43.1773V26.56H45.2893V18.64H43.1773ZM60.248 18.64H58.248V29.664H60.248V18.64ZM55.304 29.232H57.272V18.896H55.304V22H53.544V23.712H55.304V29.232ZM54.872 25.808C53.032 24.912 52.328 23.248 52.328 21.52V19.632H50.28V21.52C50.28 23.28 49.512 25.184 47.496 26.176L48.648 27.776C49.944 27.168 50.808 26.112 51.336 24.864C51.8 25.968 52.568 26.88 53.72 27.424L54.872 25.808ZM52.44 31.44V28.384H50.328V33.12H60.616V31.44H52.44ZM65.1748 25.616H69.3988V23.968H65.1748V21.568H69.8948V19.872H63.0788V30.064H64.2788C66.7588 30.064 68.6468 30.016 70.7748 29.68L70.5828 27.984C68.7748 28.272 67.1588 28.352 65.1748 28.368V25.616ZM72.6628 18.624V23.824H70.1348V25.52H72.6628V33.408H74.7748V18.624H72.6628Z" fill="white"/>
</svg>

<svg width="94" height="54" fill="none" xmlns="http://www.w3.org/2000/svg"><path fill-rule="evenodd" clip-rule="evenodd" d="M67.254 0C59.16 0 51.908 3.637 47 9.378 42.097 3.637 34.841 0 26.746 0 11.976 0 0 12.09 0 27s11.976 27 26.746 27C34.84 54 42.092 50.363 47 44.622 51.903 50.363 59.154 54 67.254 54 82.024 54 94 41.91 94 27S82.024 0 67.254 0z" fill="#E50012"/><path d="M27.067 25.424c-2.352-.608-3.377-2.112-3.409-3.6h2.912v-1.648h-2.912v-1.584h-2.111v1.584h-2.88v1.648h2.88c-.032 1.664-1.056 3.296-3.409 3.968l1.008 1.648c1.697-.496 2.864-1.552 3.505-2.88.672 1.152 1.808 2.064 3.456 2.496l.96-1.632zm-2.032 6.336c-1.904 0-2.896-.368-2.896-1.168 0-.8.992-1.168 2.896-1.168 1.887 0 2.88.368 2.88 1.168 0 .8-.992 1.168-2.88 1.168zm0-3.968c-3.088 0-4.992 1.04-4.992 2.8 0 1.76 1.904 2.784 4.992 2.784 3.072 0 4.976-1.024 4.976-2.784 0-1.76-1.904-2.8-4.976-2.8zm4.816-5.696V18.64h-2.113v8.88h2.113v-3.696h1.951v-1.728h-1.951zm13.342 9.424h-5.568v-1.312h5.568v1.312zm0-2.912h-5.568V27.2H35.53v6h9.76v-6h-2.096v1.408zm-6.16-4.08c-1.072 0-1.856-.656-1.856-1.76s.784-1.76 1.856-1.76c1.088 0 1.872.656 1.872 1.76s-.784 1.76-1.872 1.76zm6.144-5.888v3.248h-2.352c-.416-1.568-1.92-2.64-3.792-2.64-2.208 0-3.872 1.472-3.872 3.52s1.664 3.52 3.872 3.52c1.904 0 3.408-1.088 3.808-2.688h2.336v2.96h2.112v-7.92h-2.112zm17.071 0h-2v11.024h2V18.64zm-4.944 10.592h1.968V18.896h-1.968V22h-1.76v1.712h1.76v5.52zm-.432-3.424c-1.84-.896-2.544-2.56-2.544-4.288v-1.888H50.28v1.888c0 1.76-.768 3.664-2.784 4.656l1.152 1.6c1.296-.608 2.16-1.664 2.688-2.912.464 1.104 1.232 2.016 2.384 2.56l1.152-1.616zM52.44 31.44v-3.056h-2.112v4.736h10.288v-1.68H52.44zm12.735-5.824h4.224v-1.648h-4.224v-2.4h4.72v-1.696h-6.816v10.192h1.2c2.48 0 4.368-.048 6.496-.384l-.192-1.696c-1.808.288-3.424.368-5.408.384v-2.752zm7.488-6.992v5.2h-2.528v1.696h2.528v7.888h2.112V18.624h-2.112z" fill="#fff"/></svg>
